X:37
T:Pump Room Wedding March, or, Pump and Circumstance
M:4/4
L:1/4
C:Taz Tarry
S:Copyright B.Tarry, 22nd. May 1998
R:March
Q:1/4=100
K:G
P:A                      Play AB repeated, finish on C (resolved A)
D|GDGd|d c/2B/2Ad|c B/2A/2 G/2A/2B|A/2G/2F/2G/2 A/2c/2B/2A/2|
GDGd|d c/2B/2Ae|e/2d/2^c/2B/2 A B/2^c/2|d2 d2||
P:B
edc/2d/2e|dc B/2c/2d|cBAB|c/2d/2e/2c/2 d/2e/2f/2g/2|
edc/2d/2e|dc B/2c/2d|c/2B/2A/2B/2 ^c/2d/2e/2^c/2|d2 d!D.C.!||
P:C
D|GDGd|d c/2B/2Ad|c B/2A/2 G/2A/2B|A/2G/2F/2G/2 A/2c/2B/2A/2|
GDGd|d c/2B/2Ae|"rit. . . . . . . . . . . . . . . . . . . . . . . . . . . . . . . . . . . . . . . . . . . . . . . ." cBAd|c/2B/2A/2F/2 G2||

